_site/icons/colour_pen_tool.svg

<svg clip-rule="evenodd" fill-rule="evenodd" height="24" stroke-linecap="round" stroke-linejoin="round" width="24" xmlns="http://www.w3.org/2000/svg"><g stroke="#000" stroke-width="2"><path d="m18 13-5 5-7.5-1.5-3.5-14.5 14.5 3.5zm-7-4c-1.104 0-2 .896-2 2s.896 2 2 2 2-.896 2-2-.896-2-2-2z" fill="#feca57"/><path d="m2 2 7.586 7.586" fill="none"/><path d="m12 19 7-7 3 3-7 7z" fill="#bdc3c7" fill-rule="nonzero"/></g></svg>

<?xml version="1.0" encoding="UTF-8" standalone="no"?><!DOCTYPE svg PUBLIC "-//W3C//DTD SVG 1.1//EN" "http://www.w3.org/Graphics/SVG/1.1/DTD/svg11.dtd"><svg width="24px" height="24px" version="1.1" xmlns="http://www.w3.org/2000/svg" xmlns:xlink="http://www.w3.org/1999/xlink" xml:space="preserve" xmlns:serif="http://www.serif.com/" style="fill-rule:evenodd;clip-rule:evenodd;stroke-linecap:round;stroke-linejoin:round;"><path d="M18,13L13,18L5.5,16.5L2,2L16.5,5.5L18,13ZM11,9C9.896,9 9,9.896 9,11C9,12.104 9.896,13 11,13C12.104,13 13,12.104 13,11C13,9.896 12.104,9 11,9Z" style="fill:rgb(254,202,87);stroke:black;stroke-width:2px;"/><path d="M2,2L9.586,9.586" style="fill:none;fill-rule:nonzero;stroke:black;stroke-width:2px;"/><path d="M12,19L19,12L22,15L15,22L12,19Z" style="fill:rgb(189,195,199);fill-rule:nonzero;stroke:black;stroke-width:2px;"/></svg>
